;FLAVOR:Marlin
;TIME:1657
;Filament used: 0.655582m
;Layer height: 0.1
;MINX:88.2
;MINY:93.2
;MINZ:0.3
;MAXX:131.8
;MAXY:126.8
;MAXZ:5
;Generated with Cura_SteamEngine 4.5.0
M140 S60
M105
M190 S60
M104 S200
M105
M109 S200
M82 ;absolute extrusion mode
G28 ;Home
G1 Z15.0 F2000 ;Move the platform
G92 E0
G92 E0
G1 F1500 E-6.5
;LAYER_COUNT:48
;LAYER:0
M107
M204 S1000
G0 F7500 X90.141 Y95.261 Z0.3
;TYPE:SKIRT
G1 F1500 E0
G1 X90.684 Y94.762 E0.03679
G1 X91.277 Y94.325 E0.07354
G1 X91.914 Y93.954 E0.11032
G1 X92.588 Y93.655 E0.14711
G1 X93.29 Y93.43 E0.18388
G1 X94.013 Y93.282 E0.2207
G1 X94.818 Y93.212 E0.26102
G1 X95.33 Y93.2 E0.28657
G1 X124.39 Y93.201 E1.73638
G1 X125.088 Y93.211 E1.7712
G1 X125.824 Y93.261 E1.80801
G1 X126.55 Y93.391 E1.8448
G1 X127.257 Y93.599 E1.88157
G1 X127.938 Y93.882 E1.91836
G1 X128.584 Y94.237 E1.95514
G1 X129.188 Y94.66 E1.99193
G1 X129.743 Y95.146 E2.02873
G1 X130.241 Y95.689 E2.06549
G1 X130.678 Y96.283 E2.10228
G1 X131.048 Y96.92 E2.13903
G1 X131.347 Y97.594 E2.17582
G1 X131.572 Y98.297 E2.21264
G1 X131.718 Y99.019 E2.24939
G1 X131.788 Y99.819 E2.28946
G1 X131.8 Y100.33 E2.31496
G1 X131.799 Y119.348 E3.26377
G1 X131.79 Y120.075 E3.30004
G1 X131.741 Y120.811 E3.33684
G1 X131.613 Y121.537 E3.37362
G1 X131.407 Y122.245 E3.41041
G1 X131.125 Y122.926 E3.44718
G1 X130.771 Y123.573 E3.48398
G1 X130.349 Y124.178 E3.52078
G1 X129.865 Y124.733 E3.55752
G1 X129.323 Y125.233 E3.59431
G1 X128.73 Y125.671 E3.63109
G1 X128.093 Y126.042 E3.66786
G1 X127.419 Y126.343 E3.70469
G1 X126.717 Y126.568 E3.74147
G1 X125.995 Y126.716 E3.77824
G1 X125.182 Y126.788 E3.81896
G1 X124.67 Y126.8 E3.84451
G1 X95.619 Y126.799 E5.29387
G1 X94.921 Y126.79 E5.3287
G1 X94.186 Y126.741 E5.36545
G1 X93.46 Y126.612 E5.40223
G1 X92.752 Y126.406 E5.43902
G1 X92.071 Y126.123 E5.47581
G1 X91.424 Y125.769 E5.51261
G1 X90.82 Y125.347 E5.54937
G1 X90.264 Y124.862 E5.58618
G1 X89.765 Y124.32 E5.62293
G1 X89.327 Y123.727 E5.65971
G1 X88.956 Y123.09 E5.69649
G1 X88.656 Y122.416 E5.7333
G1 X88.431 Y121.714 E5.77007
G1 X88.283 Y120.992 E5.80684
G1 X88.211 Y120.175 E5.84776
G1 X88.2 Y119.658 E5.87356
G1 X88.201 Y100.582 E6.82527
G1 X88.21 Y99.917 E6.85845
G1 X88.26 Y99.181 E6.89525
G1 X88.389 Y98.456 E6.93199
G1 X88.596 Y97.748 E6.96879
G1 X88.878 Y97.067 E7.00556
G1 X89.233 Y96.42 E7.04238
G1 X89.655 Y95.816 E7.07914
G1 X90.141 Y95.261 E7.11595
G0 F7500 X90.533 Y95.435
G1 F1500 X91.071 Y94.964 E7.15162
G1 X91.659 Y94.556 E7.18733
G1 X92.288 Y94.216 E7.223
G1 X92.952 Y93.949 E7.2587
G1 X93.641 Y93.757 E7.29439
G1 X94.347 Y93.643 E7.33007
G1 X94.83 Y93.612 E7.35421
G1 X95.33 Y93.6 E7.37916
G1 X124.385 Y93.601 E8.82872
G1 X125.083 Y93.611 E8.86355
G1 X125.796 Y93.661 E8.89921
G1 X126.5 Y93.79 E8.93492
G1 X127.184 Y93.998 E8.97059
G1 X127.841 Y94.28 E9.00625
G1 X128.463 Y94.634 E9.04196
G1 X129.041 Y95.055 E9.07764
G1 X129.569 Y95.538 E9.11334
G1 X130.039 Y96.076 E9.14898
G1 X130.447 Y96.664 E9.18468
G1 X130.786 Y97.294 E9.22038
G1 X131.053 Y97.957 E9.25603
G1 X131.244 Y98.647 E9.29175
G1 X131.357 Y99.353 E9.32742
G1 X131.388 Y99.83 E9.35127
G1 X131.4 Y100.33 E9.37622
G1 X131.4 Y119.343 E10.32479
G1 X131.391 Y120.07 E10.36106
G1 X131.342 Y120.784 E10.39676
G1 X131.214 Y121.488 E10.43246
G1 X131.008 Y122.173 E10.46815
G1 X130.727 Y122.83 E10.5038
G1 X130.374 Y123.453 E10.53952
G1 X129.954 Y124.032 E10.57521
G1 X129.472 Y124.56 E10.61088
G1 X128.935 Y125.032 E10.64655
G1 X128.347 Y125.44 E10.68225
G1 X127.718 Y125.781 E10.71795
G1 X127.055 Y126.049 E10.75363
G1 X126.366 Y126.241 E10.78931
G1 X125.66 Y126.356 E10.825
G1 X125.17 Y126.388 E10.84949
G1 X124.67 Y126.4 E10.87445
G1 X95.624 Y126.399 E12.32356
G1 X94.926 Y126.39 E12.35838
G1 X94.213 Y126.341 E12.39404
G1 X93.509 Y126.213 E12.42974
G1 X92.824 Y126.007 E12.46542
G1 X92.167 Y125.725 E12.50109
G1 X91.545 Y125.372 E12.53677
G1 X90.966 Y124.952 E12.57246
G1 X90.437 Y124.47 E12.60817
G1 X89.966 Y123.932 E12.64384
G1 X89.558 Y123.345 E12.6795
G1 X89.218 Y122.715 E12.71522
G1 X88.95 Y122.052 E12.7509
G1 X88.758 Y121.363 E12.78658
G1 X88.644 Y120.657 E12.82226
G1 X88.611 Y120.164 E12.84691
G1 X88.6 Y119.658 E12.87216
G1 X88.601 Y100.587 E13.82362
G1 X88.61 Y99.922 E13.8568
G1 X88.659 Y99.209 E13.89245
G1 X88.788 Y98.505 E13.92816
G1 X88.995 Y97.821 E13.96381
G1 X89.277 Y97.163 E13.99953
G1 X89.63 Y96.541 E14.03521
G1 X90.05 Y95.963 E14.07086
G1 X90.533 Y95.435 E14.10656
G0 F7500 X90.924 Y95.614
G1 F1500 X91.458 Y95.173 E14.14111
G1 X92.039 Y94.796 E14.17566
G1 X92.659 Y94.488 E14.2102
G1 X93.311 Y94.254 E14.24476
G1 X93.985 Y94.097 E14.27929
G1 X94.841 Y94.011 E14.32221
G1 X95.33 Y94 E14.34661
G1 X124.379 Y94.001 E15.79587
G1 X125.077 Y94.011 E15.8307
G1 X125.768 Y94.06 E15.86526
G1 X126.448 Y94.19 E15.8998
G1 X127.109 Y94.396 E15.93434
G1 X127.742 Y94.678 E15.96891
G1 X128.338 Y95.03 E16.00345
G1 X128.889 Y95.449 E16.03798
G1 X129.389 Y95.929 E16.07256
G1 X129.83 Y96.463 E16.10711
G1 X130.207 Y97.044 E16.14167
G1 X130.514 Y97.665 E16.17623
G1 X130.747 Y98.317 E16.21077
G1 X130.904 Y98.991 E16.2453
G1 X130.989 Y99.841 E16.28791
G1 X131 Y100.33 E16.31232
G1 X131 Y119.338 E17.26063
G1 X130.991 Y120.065 E17.2969
G1 X130.942 Y120.756 E17.33146
G1 X130.814 Y121.437 E17.36603
G1 X130.609 Y122.098 E17.40056
G1 X130.329 Y122.731 E17.43509
G1 X129.977 Y123.328 E17.46967
G1 X129.56 Y123.881 E17.50422
G1 X129.081 Y124.381 E17.53877
G1 X128.548 Y124.823 E17.57331
G1 X127.967 Y125.201 E17.60789
G1 X127.347 Y125.509 E17.64243
G1 X126.696 Y125.744 E17.67696
G1 X126.021 Y125.902 E17.71155
G1 X125.159 Y125.989 E17.75477
G1 X124.67 Y126 E17.77917
G1 X95.63 Y126 E19.22799
G1 X94.932 Y125.991 E19.26281
G1 X94.241 Y125.942 E19.29737
G1 X93.56 Y125.813 E19.33195
G1 X92.899 Y125.608 E19.36648
G1 X92.266 Y125.327 E19.40103
G1 X91.669 Y124.976 E19.43558
G1 X91.117 Y124.558 E19.47013
G1 X90.617 Y124.079 E19.50467
G1 X90.175 Y123.545 E19.53926
G1 X89.798 Y122.965 E19.57377
G1 X89.49 Y122.344 E19.60835
G1 X89.255 Y121.693 E19.64288
G1 X89.098 Y121.018 E19.67746
G1 X89.011 Y120.153 E19.72083
G1 X89 Y119.658 E19.74553
G1 X89.001 Y100.593 E20.69669
G1 X89.01 Y99.928 E20.72987
G1 X89.059 Y99.237 E20.76443
G1 X89.187 Y98.557 E20.79895
G1 X89.394 Y97.895 E20.83355
G1 X89.675 Y97.262 E20.8681
G1 X90.027 Y96.666 E20.90264
G1 X90.445 Y96.114 E20.93718
G1 X90.924 Y95.614 E20.97173
G0 F7500 X90.839 Y96.271
G1 F1500 X91.314 Y95.801 E21.00507
G1 X91.843 Y95.39 E21.03849
G1 X92.416 Y95.045 E21.07186
G1 X93.027 Y94.772 E21.10524
G1 X93.665 Y94.573 E21.13858
G1 X94.323 Y94.451 E21.17197
G1 X94.852 Y94.411 E21.19844
G1 X95.33 Y94.4 E21.22229
G1 X124.373 Y94.401 E22.67125
G1 X125.071 Y94.411 E22.70608
G1 X125.738 Y94.46 E22.73945
G1 X126.395 Y94.589 E22.77285
G1 X127.031 Y94.795 E22.8062
G1 X127.639 Y95.076 E22.83962
G1 X128.208 Y95.426 E22.87295
G1 X128.732 Y95.843 E22.90636
G1 X129.202 Y96.319 E22.93973
G1 X129.612 Y96.847 E22.97308
G1 X129.957 Y97.421 E23.0065
G1 X130.23 Y98.032 E23.03988
G1 X130.428 Y98.671 E23.07326
G1 X130.549 Y99.329 E23.10664
G1 X130.589 Y99.853 E23.13285
G1 X130.6 Y100.33 E23.15666
G1 X130.6 Y119.333 E24.10472
G1 X130.591 Y120.06 E24.14099
G1 X130.542 Y120.728 E24.17441
G1 X130.415 Y121.384 E24.20775
G1 X130.21 Y122.021 E24.24113
G1 X129.931 Y122.629 E24.27451
G1 X129.581 Y123.199 E24.30788
G1 X129.165 Y123.724 E24.3413
G1 X128.69 Y124.195 E24.37467
G1 X128.163 Y124.606 E24.40801
G1 X127.59 Y124.952 E24.44141
G1 X126.98 Y125.226 E24.47477
G1 X126.341 Y125.426 E24.50817
G1 X125.683 Y125.548 E24.54156
G1 X125.148 Y125.589 E24.56833
G1 X124.67 Y125.6 E24.59218
G1 X95.635 Y125.6 E26.04075
G1 X94.937 Y125.591 E26.07557
G1 X94.27 Y125.542 E26.10894
G1 X93.613 Y125.414 E26.14233
G1 X92.976 Y125.209 E26.17572
G1 X92.368 Y124.929 E26.20911
G1 X91.798 Y124.579 E26.24248
G1 X91.274 Y124.163 E26.27586
G1 X90.803 Y123.688 E26.30924
G1 X90.392 Y123.16 E26.34262
G1 X90.047 Y122.587 E26.37599
G1 X89.773 Y121.977 E26.40935
G1 X89.573 Y121.338 E26.44275
G1 X89.452 Y120.68 E26.47613
G1 X89.411 Y120.142 E26.50305
G1 X89.4 Y119.658 E26.5272
G1 X89.401 Y100.598 E27.47811
G1 X89.41 Y99.933 E27.51129
G1 X89.459 Y99.266 E27.54466
G1 X89.587 Y98.609 E27.57805
G1 X89.792 Y97.973 E27.61139
G1 X90.072 Y97.365 E27.64478
G1 X90.423 Y96.795 E27.67818
G1 X90.839 Y96.271 E27.71156
G0 F7500 X91.232 Y96.435
G1 F1500 X91.703 Y95.995 E27.74372
G1 X92.226 Y95.617 E27.77591
G1 X92.79 Y95.306 E27.80804
G1 X93.389 Y95.068 E27.8402
G1 X94.013 Y94.905 E27.87238
G1 X94.863 Y94.811 E27.91504
G1 X95.33 Y94.8 E27.93835
G1 X124.367 Y94.801 E29.38701
G1 X125.065 Y94.811 E29.42183
G1 X125.708 Y94.86 E29.45401
G1 X126.34 Y94.988 E29.48618
G1 X126.951 Y95.194 E29.51835
G1 X127.532 Y95.473 E29.5505
G1 X128.074 Y95.822 E29.58266
G1 X128.568 Y96.236 E29.61482
G1 X129.008 Y96.708 E29.64701
G1 X129.386 Y97.23 E29.67917
G1 X129.696 Y97.795 E29.71132
G1 X129.934 Y98.394 E29.74348
G1 X130.096 Y99.018 E29.77564
G1 X130.189 Y99.864 E29.8181
G1 X130.2 Y100.33 E29.84136
G1 X130.2 Y119.328 E30.78917
G1 X130.191 Y120.055 E30.82544
G1 X130.143 Y120.698 E30.85761
G1 X130.016 Y121.33 E30.88977
G1 X129.811 Y121.942 E30.92197
G1 X129.533 Y122.523 E30.95411
G1 X129.185 Y123.066 E30.98628
G1 X128.772 Y123.561 E31.01844
G1 X128.301 Y124.001 E31.0506
G1 X127.779 Y124.38 E31.08278
G1 X127.215 Y124.691 E31.11492
G1 X126.616 Y124.93 E31.14709
G1 X125.993 Y125.094 E31.17923
G1 X125.137 Y125.189 E31.2222
G1 X124.67 Y125.2 E31.24551
G1 X95.64 Y125.2 E32.69382
G1 X94.942 Y125.191 E32.72864
G1 X94.299 Y125.142 E32.76082
G1 X93.667 Y125.015 E32.79298
G1 X93.056 Y124.81 E32.82513
G1 X92.475 Y124.532 E32.85726
G1 X91.932 Y124.183 E32.88947
G1 X91.437 Y123.77 E32.92163
G1 X90.997 Y123.299 E32.95379
G1 X90.618 Y122.777 E32.98597
G1 X90.307 Y122.213 E33.0181
G1 X90.069 Y121.614 E33.05026
G1 X89.906 Y120.99 E33.08244
G1 X89.811 Y120.131 E33.12555
G1 X89.8 Y119.658 E33.14916
G1 X89.8 Y100.604 E34.09976
G1 X89.809 Y99.939 E34.13294
G1 X89.858 Y99.296 E34.16512
G1 X89.986 Y98.664 E34.19729
G1 X90.191 Y98.053 E34.22944
G1 X90.47 Y97.472 E34.2616
G1 X90.819 Y96.929 E34.2938
G1 X91.232 Y96.435 E34.32592
G1 F1500 E27.82592
;MESH:30x20x5mm M5 M10 Hole R plus Nozzel Size div 4.stl
G0 F7500 X100.966 Y108.849
G0 X99.749 Y107.977
G0 X99.477 Y109.6
G0 X99.572 Y110.853
G0 X100.185 Y111.985
G0 X101.337 Y112.818
G0 X102.561 Y113.213
;TYPE:WALL-INNER
G1 F1500 E34.32592
G1 X103.914 Y112.89 E34.39532
G1 X105.112 Y111.883 E34.4734
G1 X105.674 Y110.442 E34.55057
G1 X105.702 Y109.954 E34.57495
G1 X105.456 Y108.746 E34.63646
G1 X104.833 Y107.791 E34.69334
G1 X103.556 Y106.963 E34.76927
G1 X102.236 Y106.797 E34.83565
G1 X100.997 Y107.159 E34.90005
G1 X99.909 Y108.092 E34.97155
G1 X99.313 Y109.574 E35.05124
G1 X99.414 Y110.899 E35.11754
G1 X100.061 Y112.095 E35.18538
G1 X101.271 Y112.971 E35.25991
G1 X102.561 Y113.213 E35.32539
G0 F7500 X102.551 Y112.804
;TYPE:WALL-OUTER
G1 F1500 X103.729 Y112.523 E35.38581
G1 X104.776 Y111.643 E35.45404
G1 X105.278 Y110.355 E35.52301
G1 X105.3 Y109.983 E35.5416
G1 X105.079 Y108.901 E35.5967
G1 X104.544 Y108.08 E35.64559
G1 X103.415 Y107.348 E35.71271
G1 X102.269 Y107.204 E35.77034
G1 X101.192 Y107.519 E35.82632
G1 X100.244 Y108.332 E35.88863
G1 X99.719 Y109.637 E35.95881
G1 X99.806 Y110.784 E36.01619
G1 X100.369 Y111.824 E36.07519
G1 X101.433 Y112.594 E36.14072
G1 X102.551 Y112.804 E36.19747
G0 F7500 X102.745 Y112.758
G0 X102.846 Y113.186
G1 F1500 E29.69747
G0 F7500 X105.272 Y111.998
G0 X104.052 Y111.125
G0 X113.664 Y112.215
G0 X112.396 Y112.956
G0 X113.719 Y114.055
G0 X114.924 Y114.907
G0 X116.008 Y115.308
G0 X117.676 Y115.703
;TYPE:WALL-INNER
G1 F1500 E36.19747
G1 X119.268 Y115.423 E36.27812
G1 X120.209 Y115.02 E36.32919
G1 X121.635 Y113.932 E36.41867
G1 X122.487 Y112.772 E36.49048
G1 X123.073 Y111.22 E36.57324
G1 X123.204 Y110.042 E36.63238
G1 X122.991 Y108.446 E36.71271
G1 X122.404 Y107.083 E36.78675
G1 X121.421 Y105.854 E36.86526
G1 X120.025 Y104.883 E36.9501
G1 X118.624 Y104.407 E37.02392
G1 X117.295 Y104.3 E37.09044
G1 X115.915 Y104.52 E37.16016
G1 X114.583 Y105.096 E37.23256
G1 X113.36 Y106.074 E37.31068
G1 X112.525 Y107.211 E37.38106
G1 X112.025 Y108.397 E37.44527
G1 X111.795 Y109.894 E37.52084
G1 X111.974 Y111.419 E37.59744
G1 X112.562 Y112.859 E37.67504
G1 X113.607 Y114.173 E37.7588
G1 X114.848 Y115.051 E37.83464
G1 X116.226 Y115.561 E37.90795
G1 X117.676 Y115.703 E37.98064
G0 F7500 X117.661 Y115.3
;TYPE:WALL-OUTER
G1 F1500 X119.153 Y115.037 E38.05622
G1 X120.006 Y114.672 E38.10251
G1 X121.347 Y113.649 E38.18666
G1 X122.132 Y112.579 E38.25286
G1 X122.681 Y111.126 E38.33036
G1 X122.801 Y110.046 E38.38457
G1 X122.602 Y108.554 E38.45967
G1 X122.058 Y107.291 E38.52827
G1 X121.145 Y106.149 E38.60122
G1 X119.843 Y105.244 E38.68033
G1 X118.542 Y104.802 E38.74888
G1 X117.311 Y104.703 E38.81049
G1 X116.028 Y104.907 E38.8753
G1 X114.791 Y105.442 E38.94254
G1 X113.651 Y106.353 E39.01535
G1 X112.875 Y107.41 E39.08076
G1 X112.413 Y108.507 E39.14015
G1 X112.199 Y109.901 E39.21051
G1 X112.365 Y111.318 E39.28169
G1 X112.911 Y112.655 E39.35374
G1 X113.885 Y113.879 E39.43178
G1 X115.036 Y114.694 E39.50214
G1 X116.316 Y115.168 E39.57024
G1 X117.661 Y115.3 E39.63766
G0 F7500 X117.857 Y115.266
G0 X117.931 Y115.699
G1 F1500 E33.13766
G0 F7500 X114.758 Y115.221
G0 X115.442 Y113.923
G0 X114.758 Y120.665
G0 X114.758 Y119.19
G0 X95.6 Y119.4
;TYPE:WALL-INNER
G1 F1500 E39.63766
G1 X95.6 Y100.6 E40.5756
G1 X124.4 Y100.6 E42.01244
G1 X124.4 Y119.4 E42.95037
G1 X95.6 Y119.4 E44.38721
G0 F7500 X95.2 Y119.8
;TYPE:WALL-OUTER
G1 F1500 X95.2 Y100.2 E45.36506
G1 X124.8 Y100.2 E46.84181
G1 X124.8 Y119.8 E47.81966
G1 X95.2 Y119.8 E49.29641
G0 F7500 X95.2 Y119.6
G0 X95.64 Y119.36
G0 X95.99 Y119.01
;TYPE:SKIN
G1 F1500 X95.99 Y100.99 E50.19543
G1 X124.01 Y100.99 E51.59335
G1 X124.01 Y119.01 E52.49237
G1 X95.99 Y119.01 E53.8903
G1 F1500 E47.3903
G0 F7500 X95.71 Y119.01
G0 X95.81 Y112.171
G0 X94.335 Y112.171
G0 X100.653 Y110.534
G0 X99.227 Y110.955
G0 X99.976 Y112.171
G0 X99.761 Y112.359
G1 F1500 E53.8903
G1 X101.113 Y113.338 E53.97358
G1 X102.571 Y113.611 E54.04758
G1 X104.094 Y113.248 E54.12569
G1 X105.439 Y112.117 E54.21336
G1 X106.06 Y110.526 E54.29857
G1 X106.094 Y109.926 E54.32855
G1 X105.823 Y108.596 E54.39627
G1 X105.114 Y107.508 E54.46106
G1 X103.693 Y106.587 E54.54554
G1 X102.205 Y106.4 E54.62036
G1 X100.807 Y106.808 E54.69302
G1 X99.583 Y107.858 E54.77348
G1 X98.917 Y109.513 E54.86248
G1 X99.032 Y111.012 E54.93748
G1 X99.761 Y112.359 E55.0139
G1 F1500 E48.5139
G0 F7500 X99.976 Y112.171
G0 X101.337 Y112.818
G0 X102.556 Y113.047
G0 X103.838 Y112.742
G0 X104.862 Y111.882
G0 X105.863 Y110.483
G0 X104.424 Y110.168
G0 X113.209 Y111.101
G0 X111.788 Y111.468
G0 X112.466 Y112.917
G0 X112.222 Y113.058
G1 F1500 E55.0139
G1 X113.336 Y114.459 E55.1032
G1 X114.665 Y115.399 E55.18441
G1 X116.138 Y115.945 E55.26278
G1 X117.691 Y116.097 E55.34063
G1 X119.38 Y115.799 E55.4262
G1 X120.407 Y115.359 E55.48194
G1 X121.916 Y114.208 E55.57662
G1 X122.833 Y112.959 E55.65393
G1 X123.455 Y111.312 E55.74176
G1 X123.596 Y110.038 E55.80571
G1 X123.371 Y108.341 E55.89111
G1 X122.741 Y106.88 E55.97049
G1 X121.69 Y105.566 E56.05444
G1 X120.202 Y104.532 E56.14484
G1 X118.704 Y104.023 E56.22377
G1 X117.28 Y103.908 E56.29505
G1 X115.806 Y104.142 E56.3695
G1 X114.38 Y104.759 E56.44702
G1 X113.076 Y105.801 E56.5303
G1 X112.184 Y107.018 E56.60558
G1 X111.647 Y108.29 E56.67446
G1 X111.401 Y109.887 E56.75508
G1 X111.593 Y111.517 E56.83696
G1 X112.222 Y113.058 E56.92
G1 F1500 E50.42
G0 F7500 X112.466 Y112.917
G0 X112.132 Y111.377
G0 X111.958 Y109.897
G0 X112.181 Y108.442
G0 X112.666 Y107.292
G0 X113.477 Y106.186
G0 X114.667 Y105.235
G0 X115.961 Y104.675
G0 X117.302 Y104.463
G0 X118.462 Y104.555
G0 X121.291 Y105.532
G0 X124.19 Y105.532
G0 X124.29 Y101.222
G0 X123.849 Y101.222
G1 F1500 E56.92
G1 X123.777 Y101.15 E56.92508
G0 F7500 X123.211 Y101.15
G1 F1500 X123.849 Y101.788 E56.97009
G0 F7500 X123.849 Y102.353
G1 F1500 X122.646 Y101.15 E57.05497
G0 F7500 X122.08 Y101.15
G1 F1500 X123.849 Y102.919 E57.17978
G0 F7500 X123.849 Y103.485
G1 F1500 X121.514 Y101.15 E57.34453
G0 F7500 X120.949 Y101.15
G1 F1500 X123.849 Y104.05 E57.54914
